public/img/telegram.svg

<svg width="24" height="24" viewBox="0 0 24 24" fill="none" xmlns="http://www.w3.org/2000/svg">
<path fill-rule="evenodd" clip-rule="evenodd" d="M21.4735 4.41816C21.3925 4.3522 21.2969 4.30241 21.1908 4.27463C21.104 4.25174 21.0127 4.24425 20.9211 4.25399C20.891 4.25716 20.8613 4.26214 20.8322 4.26883C20.7909 4.2783 20.7501 4.29136 20.7102 4.30811L1.72466 11.8024C1.40817 11.9273 1.21543 12.2497 1.25516 12.5876C1.29489 12.9255 1.55713 13.1944 1.89397 13.2425L8.25003 14.1505V19C8.25003 19.3039 8.43346 19.5778 8.71451 19.6935C8.99555 19.8092 9.31864 19.7439 9.53263 19.5281L12.3415 16.695L18.0765 20.619C18.2879 20.7636 18.5584 20.7904 18.794 20.69C19.0296 20.5896 19.1977 20.3759 19.2398 20.1233L21.7378 5.13542C21.7507 5.06567 21.7537 4.99366 21.7461 4.92145C21.7429 4.89124 21.7379 4.86145 21.7312 4.83222C21.7164 4.76729 21.6926 4.7036 21.6597 4.64293C21.6178 4.5654 21.5637 4.49771 21.5007 4.44134C21.4168 4.36604 21.3185 4.31217 21.214 4.28115M15.498 7.97818L4.90916 12.158L8.81033 12.7153L15.498 7.97818ZM8.28334 13.2783C8.31092 13.1891 8.35469 13.107 8.41123 13.0354C8.4283 13.0137 8.44636 12.9932 8.46531 12.9739M8.28334 13.2783C8.26025 13.3529 8.24931 13.4297 8.24999 13.506C8.25 13.5074 8.25001 13.5088 8.25003 13.5102M9.75003 14.9219V17.1783L11.0829 15.8339L9.75003 14.9219ZM12.6834 15.1114C12.6758 15.106 12.6681 15.1008 12.6603 15.0957L10.3126 13.4894L19.9642 6.65281L17.9535 18.7173L12.6834 15.1114ZM9.43614 12.8897C9.39359 12.8592 9.34757 12.833 9.2986 12.8118C9.27366 12.801 9.24801 12.7914 9.22175 12.7833C9.17875 12.77 9.13499 12.7607 9.091 12.7554" fill="#535761"/>
</svg>

<svg width="24" height="24" fill="none" xmlns="http://www.w3.org/2000/svg"><path fill-rule="evenodd" clip-rule="evenodd" d="M21.474 4.418a.746.746 0 00-.764-.11L1.725 11.802a.75.75 0 00.169 1.44l6.356.908V19a.75.75 0 001.283.528l2.809-2.833 5.734 3.924a.75.75 0 001.164-.496l2.498-14.988a.746.746 0 00-.524-.854m-5.716 3.697l-10.589 4.18 3.901.557 6.688-4.737zm-7.215 5.3a.749.749 0 01.182-.304m-.182.304a.747.747 0 00-.033.232m1.5 1.412v2.256l1.333-1.344-1.333-.912zm2.933.19a.721.721 0 00-.023-.016l-2.347-1.607 9.651-6.836-2.01 12.064-5.27-3.606zM9.436 12.89a.742.742 0 00-.345-.135" fill="#535761"/></svg>
